resources/haticons/SVG/forum.svg

<!-- Generated by IcoMoon.io -->
<svg version="1.1" xmlns="http://www.w3.org/2000/svg" width="24" height="24" viewBox="0 0 24 24">
<title>forum</title>
<path d="M17.016 12q0 0.422-0.305 0.703t-0.727 0.281h-9.984l-3.984 4.031v-14.016q0-0.422 0.281-0.703t0.703-0.281h12.984q0.422 0 0.727 0.281t0.305 0.703v9zM21 6q0.422 0 0.703 0.281t0.281 0.703v15l-3.984-3.984h-11.016q-0.422 0-0.703-0.281t-0.281-0.703v-2.016h12.984v-9h2.016z"></path>
</svg>

<svg xmlns="http://www.w3.org/2000/svg" width="24" height="24"><path d="M17.016 12q0 .422-.305.703t-.727.281H6l-3.984 4.031V2.999q0-.422.281-.703T3 2.015h12.984q.422 0 .727.281t.305.703v9zM21 6q.422 0 .703.281t.281.703v15L18 18H6.984q-.422 0-.703-.281T6 17.016V15h12.984V6H21z"/></svg>
